icons/cpu.svg

<svg width="24" height="24" viewBox="0 0 24 24" fill="none" xmlns="http://www.w3.org/2000/svg">
<path d="M9 8C8.44772 8 8 8.44772 8 9V15C8 15.5523 8.44772 16 9 16H15C15.5523 16 16 15.5523 16 15V9C16 8.44772 15.5523 8 15 8H9Z" fill="black"/>
<path fill-rule="evenodd" clip-rule="evenodd" d="M10 3C10 2.44772 9.55228 2 9 2C8.44772 2 8 2.44772 8 3V4H5C4.44772 4 4 4.44772 4 5V8H3C2.44772 8 2 8.44772 2 9C2 9.55228 2.44772 10 3 10H4V14H3C2.44772 14 2 14.4477 2 15C2 15.5523 2.44772 16 3 16H4V19C4 19.5523 4.44772 20 5 20H8V21C8 21.5523 8.44772 22 9 22C9.55228 22 10 21.5523 10 21V20H14V21C14 21.5523 14.4477 22 15 22C15.5523 22 16 21.5523 16 21V20H19C19.5523 20 20 19.5523 20 19V16H21C21.5523 16 22 15.5523 22 15C22 14.4477 21.5523 14 21 14H20V10H21C21.5523 10 22 9.55228 22 9C22 8.44772 21.5523 8 21 8H20V5C20 4.44772 19.5523 4 19 4H16V3C16 2.44772 15.5523 2 15 2C14.4477 2 14 2.44772 14 3V4H10V3ZM6 18V6H18V18H6Z" fill="black"/>
</svg>

<svg
  width="24"
  height="24"
  viewBox="0 0 24 24"
  xmlns="http://www.w3.org/2000/svg"
>
  <path d="M9 8a1 1 0 0 0-1 1v6a1 1 0 0 0 1 1h6a1 1 0 0 0 1-1V9a1 1 0 0 0-1-1H9z" />
  <path
    fill-rule="evenodd"
    clip-rule="evenodd"
    d="M10 3a1 1 0 0 0-2 0v1H5a1 1 0 0 0-1 1v3H3a1 1 0 0 0 0 2h1v4H3a1 1 0 1 0 0 2h1v3a1 1 0 0 0 1 1h3v1a1 1 0 1 0 2 0v-1h4v1a1 1 0 1 0 2 0v-1h3a1 1 0 0 0 1-1v-3h1a1 1 0 1 0 0-2h-1v-4h1a1 1 0 1 0 0-2h-1V5a1 1 0 0 0-1-1h-3V3a1 1 0 1 0-2 0v1h-4V3zM6 18V6h12v12H6z"
  />
</svg>
